X:1
T:Ich Singe Dir, CM
T:Ich Singe Dir, CM
T:Harmonischer Liederschatz (Frankfurt, 1738)
T:Public Domain Courtesy of the Cyber Hymnal™
C:Harmonischer Liederschatz (Frankfurt, 1738)
Z:Public Domain
Z:Courtesy of the Cyber Hymnal™
%%score ( 1 2 ) ( 3 4 )
L:1/8
Q:1/4=115
M:4/4
K:Bb
V:1 treble 
V:2 treble 
V:3 bass 
V:4 bass 
V:1
 [DF]2 | [DF]2 [CF]2 [B,F]2 [DB]2 | [Cc]2 [CA]2 [DB]3 [Fc] | [=EG]2 [FA]2 [FG]2 [EG]2 | [CF]6 F2 | %5
 [DB]2 [Fc]2 [Fd]2 [GB]2 | [Ee]2 [Fd]2 [Fc]3 [DB] | [Fc]2 [Gd]2 [Gc]2 [Fc]2 | [DB]6 |] %9
V:2
 x2 | x8 | x8 | x8 | x6 F2 | x8 | x8 | x8 | x6 |] %9
V:3
 [B,,B,]2 | [B,,B,]2 [F,A,]2 [D,F,]2 G,2 | [E,G,]2 F,2 [B,,F,]3 [A,,C] | %3
 [C,C]2 [F,C]2 [B,,D]2 [C,C]2 | [F,,A,]6 [F,A,]2 | [G,B,]2 [F,A,]2 [B,,B,]2 [E,G,]2 | %6
 [C,G,]2 [D,B,]2 [F,A,]3 G, | [F,A,]2 [D,B,]2 [E,B,]2 [F,A,]2 | [B,,B,]6 |] %9
V:4
 x2 | x6 G,2 | x2 F,2 x4 | x8 | x8 | x8 | x7 G, | x8 | x6 |] %9

